images/icons/cart.svg

<svg width="30" height="26" viewBox="0 0 30 26" fill="none" xmlns="http://www.w3.org/2000/svg">
<path d="M26.8125 15.3359L29.1992 4.77344C29.3516 4.01172 28.793 3.25 27.9805 3.25H8.07422L7.61719 1.01562C7.46484 0.457031 6.95703 0 6.39844 0H1.21875C0.507812 0 0 0.558594 0 1.21875V2.03125C0 2.74219 0.507812 3.25 1.21875 3.25H4.72266L8.32812 20.7188C7.46484 21.2266 6.90625 22.1406 6.90625 23.1562C6.90625 24.7305 8.17578 26 9.75 26C11.2734 26 12.5938 24.7305 12.5938 23.1562C12.5938 22.3945 12.2383 21.6836 11.7305 21.125H22.3438C21.8359 21.6836 21.5312 22.3945 21.5312 23.1562C21.5312 24.7305 22.8008 26 24.375 26C25.8984 26 27.2188 24.7305 27.2188 23.1562C27.2188 22.0391 26.5586 21.0742 25.5938 20.6172L25.8477 19.3984C26.0508 18.6367 25.4414 17.875 24.6797 17.875H11.0703L10.7148 16.25H25.5938C26.1523 16.25 26.6602 15.8945 26.8125 15.3359Z" fill="#FFC725"/>
</svg>

<svg xmlns="http://www.w3.org/2000/svg" width="30" height="26" fill="none" viewBox="0 0 30 26"><path fill="#ffc725" d="m26.813 15.336 2.386-10.563c.153-.761-.406-1.523-1.219-1.523H8.075l-.457-2.234C7.465.457 6.957 0 6.398 0h-5.18C.509 0 0 .559 0 1.219v.812C0 2.742.508 3.25 1.219 3.25h3.504l3.605 17.469c-.863.508-1.422 1.422-1.422 2.437A2.84 2.84 0 0 0 9.75 26c1.523 0 2.844-1.27 2.844-2.844 0-.761-.356-1.472-.864-2.031h10.614c-.508.559-.813 1.27-.813 2.031A2.84 2.84 0 0 0 24.375 26c1.523 0 2.844-1.27 2.844-2.844 0-1.117-.66-2.082-1.625-2.539l.254-1.219c.203-.761-.407-1.523-1.168-1.523H11.07l-.355-1.625h14.879a1.25 1.25 0 0 0 1.218-.914"/></svg>
